lib/healthicons/icons/outline/diagnostics/malaria_microscope.svg

<svg fill="none" height="48" viewBox="0 0 48 48" width="48" xmlns="http://www.w3.org/2000/svg"><g clip-rule="evenodd" fill="#333" fill-rule="evenodd"><path d="m24 42c9.9411 0 18-8.0589 18-18s-8.0589-18-18-18-18 8.0589-18 18 8.0589 18 18 18zm0 2c11.0457 0 20-8.9543 20-20s-8.9543-20-20-20-20 8.9543-20 20 8.9543 20 20 20z"/><path d="m13.4944 20.0435c1.0304-.2052 2.3816-.8113 3.7263-1.8504 1.3447-1.0392 2.272-2.1939 2.7304-3.1393.3089-.637.3237-.9701.312-1.1007-.1233-.0442-.4494-.1138-1.1438.0244-1.0304.2052-2.3816.8113-3.7263 1.8504-1.3447 1.0392-2.2719 2.1939-2.7303 3.1393-.309.637-.3238.9701-.3121 1.1007.1234.0442.4494.1138 1.1438-.0244zm-2.7494 1.2651c1.1802 1.5272 4.627.8408 7.6987-1.533s4.6051-5.5361 3.425-7.0632c-1.1801-1.5272-4.627-.8408-7.6987 1.533s-4.60513 5.5361-3.425 7.0632z"/><path d="m34.4362 31.3301c-.5552-.8734-1.5942-1.9007-3.0306-2.768-1.4365-.8674-2.8294-1.3084-3.8609-1.3931-.6704-.0549-.9807.0408-1.1021.0972.0066.1338.0663.4529.4272 1.0206.5552.8735 1.5941 1.9007 3.0306 2.7681 1.4365.8673 2.8294 1.3084 3.8609 1.393.6704.055.9806-.0407 1.1021-.0972-.0066-.1337-.0664-.4529-.4272-1.0206zm2.1677 2.0715c.9866-1.6339-.878-4.5672-4.1646-6.5516-3.2866-1.9845-6.7507-2.2686-7.7372-.6347-.9866 1.634.8779 4.5672 4.1645 6.5517 3.2866 1.9844 6.7507 2.2686 7.7373.6346z"/><path d="m32.6379 19.8933c.0251-1.0511-.2712-2.5031-.9917-4.0435-.7205-1.5403-1.6452-2.6983-2.4681-3.3528-.5556-.4418-.878-.5288-1.0077-.5457-.0702.1104-.2101.4136-.227 1.1233-.025 1.0511.2712 2.5031.9918 4.0434.7205 1.5404 1.6452 2.6984 2.4681 3.3528.5556.4419.8779.5289 1.0077.5458.0702-.1105.21-.4136.2269-1.1233zm.6328 2.9611c1.7491-.8182 1.8329-4.3337.1871-7.852s-4.398-5.70718-6.1471-4.889c-1.7492.8183-1.8329 4.3337-.1871 7.8521 1.6458 3.5183 4.3979 5.7072 6.1471 4.8889z"/><path d="m20.9685 34.9564c-.0048-1.0836-.3519-2.5663-1.1354-4.125-.7836-1.5587-1.7664-2.7217-2.6333-3.372-.6273-.4706-.9733-.5333-1.0969-.5399-.0684.1031-.2245.4182-.221 1.2024.0048 1.0836.3519 2.5663 1.1354 4.125.7836 1.5587 1.7665 2.7217 2.6333 3.372.6273.4706.9733.5334 1.0969.54.0685-.1032.2245-.4183.221-1.2025zm.6871 3.0089c1.7645-.887 1.7485-4.4831-.0356-8.0322-1.7841-3.549-4.6608-5.7071-6.4252-4.8201s-1.7485 4.4831.0356 8.0322c1.7841 3.549 4.6608 5.7071 6.4252 4.8201z"/></g></svg>

<svg width="48" height="48" viewBox="0 0 48 48" fill="none" xmlns="http://www.w3.org/2000/svg">
<path fill-rule="evenodd" clip-rule="evenodd" d="M24 42C33.9411 42 42 33.9411 42 24C42 14.0589 33.9411 6 24 6C14.0589 6 6 14.0589 6 24C6 33.9411 14.0589 42 24 42ZM24 44C35.0457 44 44 35.0457 44 24C44 12.9543 35.0457 4 24 4C12.9543 4 4 12.9543 4 24C4 35.0457 12.9543 44 24 44Z" fill="#333333"/>
<path fill-rule="evenodd" clip-rule="evenodd" d="M13.4944 20.0435C14.5248 19.8383 15.8761 19.2322 17.2208 18.1931C18.5655 17.1539 19.4927 15.9992 19.9511 15.0538C20.26 14.4168 20.2748 14.0837 20.2632 13.9531C20.1398 13.9089 19.8137 13.8393 19.1193 13.9775C18.0889 14.1827 16.7377 14.7888 15.393 15.8279C14.0483 16.8671 13.1211 18.0218 12.6627 18.9672C12.3538 19.6042 12.3389 19.9373 12.3506 20.0679C12.474 20.1121 12.8001 20.1817 13.4944 20.0435ZM10.745 21.3086C11.9252 22.8358 15.372 22.1494 18.4437 19.7756C21.5154 17.4018 23.0489 14.2395 21.8687 12.7124C20.6886 11.1852 17.2418 11.8716 14.1701 14.2454C11.0983 16.6192 9.5649 19.7815 10.745 21.3086Z" fill="#333333"/>
<path fill-rule="evenodd" clip-rule="evenodd" d="M34.4362 31.3301C33.881 30.4567 32.842 29.4294 31.4055 28.5621C29.969 27.6947 28.5762 27.2537 27.5447 27.169C26.8742 27.1141 26.564 27.2098 26.4425 27.2662C26.4491 27.4 26.5089 27.7191 26.8697 28.2868C27.4249 29.1603 28.4639 30.1875 29.9004 31.0549C31.3369 31.9222 32.7297 32.3633 33.7612 32.4479C34.4317 32.5029 34.7419 32.4072 34.8634 32.3507C34.8567 32.217 34.797 31.8978 34.4362 31.3301ZM36.6039 33.4016C37.5904 31.7677 35.7259 28.8344 32.4393 26.85C29.1527 24.8655 25.6886 24.5814 24.702 26.2153C23.7155 27.8493 25.58 30.7825 28.8666 32.767C32.1532 34.7514 35.6173 35.0356 36.6039 33.4016Z" fill="#333333"/>
<path fill-rule="evenodd" clip-rule="evenodd" d="M32.6379 19.8933C32.663 18.8422 32.3667 17.3902 31.6462 15.8498C30.9257 14.3095 30.001 13.1515 29.1781 12.497C28.6225 12.0552 28.3001 11.9682 28.1704 11.9513C28.1002 12.0617 27.9603 12.3649 27.9434 13.0746C27.9184 14.1257 28.2146 15.5777 28.9352 17.118C29.6557 18.6584 30.5804 19.8164 31.4033 20.4708C31.9589 20.9127 32.2812 20.9997 32.411 21.0166C32.4812 20.9061 32.621 20.603 32.6379 19.8933ZM33.2707 22.8544C35.0198 22.0362 35.1036 18.5207 33.4578 15.0024C31.812 11.4841 29.0598 9.29522 27.3107 10.1134C25.5615 10.9317 25.4778 14.4471 27.1236 17.9655C28.7694 21.4838 31.5215 23.6727 33.2707 22.8544Z" fill="#333333"/>
<path fill-rule="evenodd" clip-rule="evenodd" d="M20.9685 34.9564C20.9637 33.8728 20.6166 32.3901 19.8331 30.8314C19.0495 29.2727 18.0667 28.1097 17.1998 27.4594C16.5725 26.9888 16.2265 26.9261 16.1029 26.9195C16.0345 27.0226 15.8784 27.3377 15.8819 28.1219C15.8867 29.2055 16.2338 30.6882 17.0173 32.2469C17.8009 33.8056 18.7838 34.9686 19.6506 35.6189C20.2779 36.0895 20.6239 36.1523 20.7475 36.1589C20.816 36.0557 20.972 35.7406 20.9685 34.9564ZM21.6556 37.9653C23.4201 37.0783 23.4041 33.4822 21.62 29.9331C19.8359 26.3841 16.9592 24.226 15.1948 25.113C13.4304 26 13.4463 29.5961 15.2304 33.1452C17.0145 36.6942 19.8912 38.8523 21.6556 37.9653Z" fill="#333333"/>
</svg>
